<?xml version="1.0" encoding="UTF-8"?>
<map version="1.10" tiledversion="1.12.2" orientation="orthogonal" renderorder="right-down" width="32" height="32" tilewidth="8" tileheight="8" infinite="0" nextlayerid="2" nextobjectid="1">
 <tileset firstgid="1" source="bg_tiles.tsx"/>
 <layer id="1" name="Tile Layer 1" width="32" height="32">
  <data encoding="csv">
19,21,20,53,36,4,52,34,38,6,5,54,3,1,54,2,53,1,50,37,21,21,36,49,3,22,33,6,52,19,20,22,
1,36,35,18,5,34,5,19,2,36,54,3,36,21,21,35,17,37,20,6,6,36,6,2,36,38,19,1,18,19,49,50,
22,2,34,38,35,21,35,35,17,4,18,6,50,35,52,21,51,3,54,17,53,5,53,18,5,50,1,53,21,21,2,54,
50,4,51,3,5,21,22,18,49,17,3,1,36,35,36,2,3,21,36,3,17,35,2,49,53,54,38,49,6,51,51,51,
17,18,1,5,19,4,3,20,3,21,34,34,52,54,18,18,19,21,5,37,38,53,38,50,37,51,34,18,54,5,1,19,
1,52,17,22,22,2,36,54,38,35,38,21,34,4,53,6,53,20,37,3,18,35,17,35,35,34,50,21,21,34,19,54,
17,50,17,18,35,52,37,53,2,5,6,53,5,5,50,37,51,17,52,36,34,34,4,2,50,3,5,17,33,2,33,53,
19,52,49,54,4,17,53,19,36,5,34,33,38,36,22,50,22,35,38,20,3,49,35,52,22,20,1,4,54,3,21,21,
1,20,22,22,6,34,38,18,1,19,6,50,19,35,22,38,50,3,33,2,4,1,17,20,52,5,6,6,50,2,52,33,
33,5,51,1,18,1,3,33,38,34,51,38,52,51,4,49,54,17,37,52,50,37,37,37,37,33,49,52,38,4,4,51,
18,34,33,51,51,5,52,22,17,52,53,5,52,3,18,5,54,20,52,49,4,5,2,36,34,34,36,6,49,18,35,37,
50,22,2,53,20,36,38,19,49,49,49,35,38,6,3,36,35,34,35,2,4,21,20,34,38,5,1,35,35,5,2,6,
35,52,53,3,51,37,17,50,6,50,38,21,22,51,2,4,20,37,36,35,4,34,20,1,36,19,3,52,34,52,51,35,
22,5,54,34,2,1,18,22,49,22,18,33,38,52,18,17,36,20,50,51,36,49,51,21,18,49,22,21,37,5,53,20,
5,34,36,54,38,20,4,4,17,21,4,37,49,36,1,20,4,3,37,36,50,1,38,6,54,2,34,50,18,21,53,37,
33,52,50,35,35,54,2,6,52,49,1,36,5,50,49,33,36,6,37,54,37,50,17,51,1,34,19,17,50,5,3,36,
5,6,19,37,17,37,19,22,20,38,50,5,54,54,20,4,50,33,50,1,38,3,3,54,6,52,22,22,20,49,53,50,
33,19,37,4,17,35,50,6,19,33,54,49,2,21,36,35,2,6,38,20,52,6,20,51,5,22,38,1,49,19,34,22,
22,54,49,1,37,20,38,3,49,22,37,53,49,51,2,53,19,36,52,22,4,17,17,5,19,53,53,36,17,52,49,38,
5,36,22,52,17,3,22,1,38,53,17,33,18,21,4,51,49,49,52,51,4,36,35,5,36,36,36,19,38,19,2,51,
54,17,35,4,22,52,21,49,5,38,53,20,51,5,3,37,52,4,17,2,50,33,2,17,1,37,35,6,20,35,49,17,
35,37,19,22,50,54,19,50,51,37,3,19,21,49,21,52,17,22,35,3,5,17,35,20,20,21,36,37,52,5,51,20,
34,21,52,50,17,36,53,3,17,22,35,3,50,5,54,53,33,38,1,50,4,53,35,51,21,36,49,49,33,51,33,51,
53,50,3,17,54,2,19,2,53,52,5,34,1,18,52,2,33,18,54,35,54,19,2,54,38,21,17,33,17,34,35,37,
33,19,51,37,35,6,21,54,1,38,17,2,35,3,5,4,18,34,3,5,36,53,38,17,17,6,33,33,19,50,54,54,
20,18,54,18,51,53,3,20,1,34,52,38,17,5,21,19,49,17,19,38,37,5,18,38,38,51,50,36,36,3,6,49,
52,37,3,37,38,54,53,21,35,35,2,54,53,2,49,54,37,3,20,20,17,4,2,6,34,2,6,51,52,54,33,20,
51,33,52,33,6,38,6,54,1,50,5,36,38,18,52,5,6,35,20,22,18,51,50,6,1,5,22,38,53,36,54,53,
52,34,49,33,34,20,19,5,53,54,20,18,36,52,34,33,54,18,53,18,54,53,50,36,52,20,6,20,21,18,54,38,
54,17,54,53,49,33,33,17,20,36,54,36,53,5,21,38,18,35,2,35,5,37,35,1,34,1,22,34,50,34,50,5,
38,17,33,53,2,38,1,19,52,38,22,38,51,33,5,34,22,33,52,38,4,33,49,17,6,53,35,4,20,53,20,53,
38,52,18,2,51,2,5,21,35,53,2,49,50,2,35,19,50,2,35,18,35,4,33,20,19,38,17,4,22,53,36,34
</data>
 </layer>
</map>
